findly-builder/apps/searchassist/src/assets/images/icons/register-credentials.svg

<svg width="40" height="40" viewBox="0 0 40 40" fill="none" xmlns="http://www.w3.org/2000/svg">
<g clip-path="url(#clip0)">
<path d="M39.3438 14.0188C39.3626 14.1375 39.3751 14.2563 39.3751 14.375C39.3751 15.4125 38.5376 16.25 37.5001 16.25H31.2501C30.7313 16.25 30.2626 16.4625 29.9251 16.8C29.5876 17.1375 29.3751 17.6063 29.3751 18.125C29.3751 18.6437 29.5876 19.1125 29.9251 19.45C30.2626 19.7875 30.7313 20 31.2501 20H32.5001C33.9626 20 35.1313 21.2563 34.9876 22.7437C34.8626 24.0437 33.7001 25 32.3938 25H26.5626C26.1313 25 25.7376 25.175 25.4563 25.4562C25.1751 25.7375 25.0001 26.1313 25.0001 26.5625C25.0001 27.425 25.7001 28.125 26.5626 28.125H26.8751C27.9438 28.125 28.8001 29.0125 28.7501 30.1C28.6938 31.1125 27.7876 31.875 26.7751 31.875H23.4376C22.5251 31.875 21.8001 32.65 21.8813 33.5812C21.9501 34.4 22.7001 35 23.5251 35H23.7501C24.8188 35 25.6751 35.8875 25.6251 36.975C25.5688 37.9875 24.6626 38.75 23.6501 38.75H1.87508C0.450075 38.75 -0.593675 37.175 0.375075 35.6688C0.687575 35.1875 1.26258 34.9875 1.83758 35C2.20008 35.0062 2.52507 34.8688 2.75633 34.6312C2.98758 34.4062 3.12508 34.0938 3.12508 33.75C3.12508 33.0625 2.56258 32.5 1.87508 32.5C1.35633 32.5 0.887575 32.2875 0.550075 31.95C0.181325 31.5812 -0.0374249 31.0625 0.0063251 30.4875C0.0750751 29.4875 0.981325 28.75 1.98133 28.75H3.43758C4.35008 28.75 5.07508 27.975 4.99382 27.0438C4.92508 26.225 4.17508 25.625 3.35008 25.625H2.18758C1.27508 25.625 0.550075 24.85 0.631325 23.9188C0.700075 23.1 1.45008 22.5 2.27508 22.5H4.06258C4.49382 22.5 4.88758 22.325 5.16883 22.0438C5.43132 21.7812 5.60007 21.425 5.62507 21.0312C5.67508 20.125 4.87508 19.375 3.96258 19.375H3.75008C2.59383 19.375 1.68133 18.325 1.91258 17.1313C2.08133 16.2375 2.91258 15.625 3.81883 15.625H10.9376C11.3688 15.625 11.7626 15.45 12.0438 15.1688C12.3063 14.9062 12.4751 14.55 12.5001 14.1562C12.5501 13.25 11.7501 12.5 10.8376 12.5H10.3126C9.10633 12.5 8.12507 11.5188 8.12507 10.3125C8.12507 10.2 8.13132 10.0875 8.15633 9.98125C8.22507 9.5125 8.44382 9.0875 8.76882 8.76875C9.16257 8.36875 9.71257 8.125 10.3126 8.125H17.7751C18.2001 8.125 18.5876 7.95 18.8751 7.675C19.1751 7.375 19.3563 6.95625 19.3376 6.48125C19.3001 5.6375 18.5501 5 17.7063 5H17.5001C16.3438 5 15.4313 3.95 15.6626 2.75625C15.8313 1.8625 16.6626 1.25 17.5688 1.25H37.7251C38.4751 1.25 39.1751 1.7375 39.3376 2.46875C39.4626 3.025 39.2751 3.55 38.9251 3.90625C38.6501 4.1875 38.2626 4.3625 37.8376 4.375H37.8126C37.2938 4.375 36.8751 4.79375 36.8751 5.3125C36.8751 5.83125 37.2938 6.25 37.8126 6.25H38.1251C39.1938 6.25 40.0501 7.1375 40.0001 8.225C39.9438 9.2375 39.0376 10 38.0251 10H35.6251C34.8688 10 34.2626 10.6812 34.3938 11.4625C34.4938 12.075 35.0813 12.5 35.7001 12.5H37.5001C38.0188 12.5 38.4876 12.7125 38.8251 13.05C39.0813 13.3062 39.2688 13.6438 39.3438 14.0188Z" fill="url(#paint0_radial)"/>
<path d="M29.375 38.75C28.3394 38.75 27.5 37.9106 27.5 36.875C27.5 35.8394 28.3394 35 29.375 35C30.4106 35 31.25 35.8394 31.25 36.875C31.25 37.9106 30.4106 38.75 29.375 38.75Z" fill="url(#paint1_radial)"/>
<path d="M4.0625 12.5C5.27062 12.5 6.25 11.5206 6.25 10.3125C6.25 9.10438 5.27062 8.125 4.0625 8.125C2.85438 8.125 1.875 9.10438 1.875 10.3125C1.875 11.5206 2.85438 12.5 4.0625 12.5Z" fill="url(#paint2_radial)"/>
<path d="M14.6968 18.5615C16.5374 18.5615 18.3781 19.2615 19.7793 20.6621C19.7793 20.6628 19.7793 20.6628 19.7799 20.6628C22.5812 23.4653 22.5812 28.0246 19.7799 30.8278L16.6856 33.9209C13.8837 36.724 9.32369 36.7228 6.52119 33.9209C3.71869 31.119 3.71869 26.559 6.52119 23.7565L9.61431 20.6628C11.0156 19.2621 12.8562 18.5615 14.6968 18.5615ZM16.6856 23.7565C15.5881 22.6603 13.8037 22.6596 12.7074 23.7571L9.61431 26.8503C8.51806 27.9471 8.51806 29.7309 9.61431 30.8278C10.7118 31.9234 12.4943 31.9246 13.5918 30.8278L16.6856 27.7346C17.7818 26.6378 17.7818 24.8534 16.6856 23.7565Z" fill="url(#paint3_linear)"/>
<path d="M29.2808 3.97656C31.1214 3.97656 32.9621 4.67719 34.3633 6.07844C37.1658 8.88031 37.1658 13.4403 34.3633 16.2428L31.2702 19.3366C28.4696 22.1391 23.9089 22.1384 21.1052 19.3372C18.3033 16.5341 18.3033 11.9741 21.1052 9.17156L24.1989 6.07844C25.5996 4.67719 27.4402 3.97656 29.2808 3.97656ZM26.1871 17.0659C26.9071 17.0659 27.6277 16.7922 28.1764 16.2441L31.2696 13.1503C32.3658 12.0534 32.3658 10.2697 31.2696 9.17281C30.1727 8.07656 28.3902 8.07656 27.2921 9.17281L24.1983 12.2659C23.1021 13.3628 23.1021 15.1472 24.1989 16.2441C24.7471 16.7916 25.4671 17.0659 26.1871 17.0659Z" fill="url(#paint4_linear)"/>
<path d="M24.4194 13.835C24.9794 13.835 25.5388 14.0487 25.9663 14.4756C26.8206 15.3293 26.8206 16.715 25.9663 17.5687L18.0106 25.5243C17.1563 26.3787 15.7719 26.3787 14.9175 25.5243C14.0631 24.6706 14.0631 23.285 14.9175 22.4312L22.8725 14.4762C23.3 14.0487 23.86 13.835 24.4194 13.835Z" fill="url(#paint5_linear)"/>
</g>
<defs>
<radialGradient id="paint0_radial" cx="0" cy="0" r="1" gradientUnits="userSpaceOnUse" gradientTransform="translate(20.0003 20) scale(19.3772 19.3958)">
<stop stop-color="#AFEEFF"/>
<stop offset="0.193" stop-color="#BBF1FF"/>
<stop offset="0.703" stop-color="#D7F8FF"/>
<stop offset="1" stop-color="#E1FAFF"/>
</radialGradient>
<radialGradient id="paint1_radial" cx="0" cy="0" r="1" gradientUnits="userSpaceOnUse" gradientTransform="translate(29.375 36.875) scale(1.81644 1.93958)">
<stop stop-color="#AFEEFF"/>
<stop offset="0.193" stop-color="#BBF1FF"/>
<stop offset="0.703" stop-color="#D7F8FF"/>
<stop offset="1" stop-color="#E1FAFF"/>
</radialGradient>
<radialGradient id="paint2_radial" cx="0" cy="0" r="1" gradientUnits="userSpaceOnUse" gradientTransform="translate(4.0625 10.3125) scale(2.11918 2.26284)">
<stop stop-color="#AFEEFF"/>
<stop offset="0.193" stop-color="#BBF1FF"/>
<stop offset="0.703" stop-color="#D7F8FF"/>
<stop offset="1" stop-color="#E1FAFF"/>
</radialGradient>
<linearGradient id="paint3_linear" x1="16.6806" y1="34.4284" x2="6.78682" y2="14.4284" gradientUnits="userSpaceOnUse">
<stop stop-color="#155CDE"/>
<stop offset="0.278" stop-color="#1F7FE5"/>
<stop offset="0.569" stop-color="#279CEB"/>
<stop offset="0.82" stop-color="#2CAFEF"/>
<stop offset="1" stop-color="#2EB5F0"/>
</linearGradient>
<linearGradient id="paint4_linear" x1="31.3746" y1="19.3497" x2="21.0552" y2="0.519688" gradientUnits="userSpaceOnUse">
<stop stop-color="#155CDE"/>
<stop offset="0.278" stop-color="#1F7FE5"/>
<stop offset="0.569" stop-color="#279CEB"/>
<stop offset="0.82" stop-color="#2CAFEF"/>
<stop offset="1" stop-color="#2EB5F0"/>
</linearGradient>
<linearGradient id="paint5_linear" x1="21.865" y1="21.5162" x2="18.62" y2="18.0587" gradientUnits="userSpaceOnUse">
<stop stop-color="#155CDE"/>
<stop offset="0.278" stop-color="#1F7FE5"/>
<stop offset="0.569" stop-color="#279CEB"/>
<stop offset="0.82" stop-color="#2CAFEF"/>
<stop offset="1" stop-color="#2EB5F0"/>
</linearGradient>
<clipPath id="clip0">
<rect width="40" height="40" fill="white"/>
</clipPath>
</defs>
</svg>

<svg width="40" height="40" fill="none" xmlns="http://www.w3.org/2000/svg"><g clip-path="url(#a)"><path d="M39.344 14.019c.019.118.031.237.031.356A1.872 1.872 0 0 1 37.5 16.25h-6.25a1.87 1.87 0 0 0-1.325.55 1.87 1.87 0 0 0 0 2.65c.338.338.806.55 1.325.55h1.25a2.499 2.499 0 0 1 2.488 2.744C34.863 24.044 33.7 25 32.394 25h-5.831c-.432 0-.825.175-1.107.456a1.564 1.564 0 0 0 1.107 2.669h.312c1.069 0 1.925.887 1.875 1.975-.056 1.012-.962 1.775-1.975 1.775h-3.337a1.56 1.56 0 0 0-1.557 1.706c.07.819.82 1.419 1.644 1.419h.225c1.069 0 1.925.888 1.875 1.975-.056 1.012-.962 1.775-1.975 1.775H1.875c-1.425 0-2.469-1.575-1.5-3.081.313-.481.888-.681 1.463-.669.362.006.687-.131.918-.369a1.22 1.22 0 0 0 .37-.881c0-.688-.563-1.25-1.25-1.25a1.87 1.87 0 0 1-1.326-.55 1.855 1.855 0 0 1-.544-1.462c.07-1 .975-1.738 1.975-1.738h1.457a1.56 1.56 0 0 0 1.556-1.706c-.069-.819-.819-1.419-1.644-1.419H2.188A1.56 1.56 0 0 1 .63 23.919C.7 23.1 1.45 22.5 2.274 22.5h1.788a1.564 1.564 0 0 0 1.562-1.469c.05-.906-.75-1.656-1.662-1.656H3.75a1.875 1.875 0 0 1-1.837-2.244c.168-.893 1-1.506 1.906-1.506h7.119a1.564 1.564 0 0 0 1.562-1.469c.05-.906-.75-1.656-1.662-1.656h-.525a2.19 2.19 0 0 1-2.188-2.188c0-.112.006-.224.031-.33a2.13 2.13 0 0 1 .613-1.213c.394-.4.944-.644 1.544-.644h7.462c.425 0 .813-.175 1.1-.45.3-.3.481-.719.463-1.194C19.3 5.638 18.55 5 17.706 5H17.5a1.875 1.875 0 0 1-1.837-2.244c.168-.893 1-1.506 1.906-1.506h20.156c.75 0 1.45.488 1.613 1.219a1.552 1.552 0 0 1-.413 1.437 1.584 1.584 0 0 1-1.087.469h-.025a.936.936 0 0 0-.938.938c0 .518.419.937.938.937h.312c1.069 0 1.925.888 1.875 1.975C39.944 9.238 39.038 10 38.025 10h-2.4c-.756 0-1.362.681-1.231 1.463.1.612.687 1.037 1.306 1.037h1.8c.519 0 .988.213 1.325.55.256.256.444.594.519.969Z" fill="url(#b)"/><path d="M29.375 38.75a1.875 1.875 0 1 1 0-3.75 1.875 1.875 0 0 1 0 3.75Z" fill="url(#c)"/><path d="M4.063 12.5a2.188 2.188 0 1 0 0-4.375 2.188 2.188 0 0 0 0 4.375Z" fill="url(#d)"/><path d="M14.697 18.561a7.167 7.167 0 0 1 5.083 2.102c2.801 2.802 2.801 7.362 0 10.165l-3.094 3.093c-2.802 2.803-7.362 2.802-10.165 0-2.802-2.802-2.802-7.362 0-10.165l3.093-3.093a7.167 7.167 0 0 1 5.083-2.102Zm1.989 5.195a2.816 2.816 0 0 0-3.979.001L9.614 26.85a2.816 2.816 0 0 0 0 3.978 2.816 2.816 0 0 0 3.978 0l3.094-3.093a2.817 2.817 0 0 0 0-3.979Z" fill="url(#e)"/><path d="M29.28 3.977c1.841 0 3.682.7 5.083 2.101 2.803 2.802 2.803 7.362 0 10.165l-3.093 3.094c-2.8 2.802-7.361 2.801-10.165 0-2.802-2.803-2.802-7.363 0-10.165L24.2 6.078a7.163 7.163 0 0 1 5.082-2.101Zm-3.093 13.089c.72 0 1.44-.274 1.99-.822l3.093-3.094a2.816 2.816 0 0 0 0-3.977 2.816 2.816 0 0 0-3.978 0l-3.094 3.093a2.817 2.817 0 0 0 0 3.978 2.805 2.805 0 0 0 1.99.822Z" fill="url(#f)"/><path d="M24.42 13.835a2.187 2.187 0 0 1 1.547 3.734l-7.956 7.955a2.187 2.187 0 1 1-3.093-3.093l7.954-7.955a2.181 2.181 0 0 1 1.547-.641Z" fill="url(#g)"/></g><defs><radialGradient id="b" cx="0" cy="0" r="1" gradientUnits="userSpaceOnUse" gradientTransform="matrix(19.3772 0 0 19.3958 20 20)"><stop stop-color="#AFEEFF"/><stop offset=".193" stop-color="#BBF1FF"/><stop offset=".703" stop-color="#D7F8FF"/><stop offset="1" stop-color="#E1FAFF"/></radialGradient><radialGradient id="c" cx="0" cy="0" r="1" gradientUnits="userSpaceOnUse" gradientTransform="matrix(1.81644 0 0 1.93958 29.375 36.875)"><stop stop-color="#AFEEFF"/><stop offset=".193" stop-color="#BBF1FF"/><stop offset=".703" stop-color="#D7F8FF"/><stop offset="1" stop-color="#E1FAFF"/></radialGradient><radialGradient id="d" cx="0" cy="0" r="1" gradientUnits="userSpaceOnUse" gradientTransform="matrix(2.11918 0 0 2.26284 4.063 10.313)"><stop stop-color="#AFEEFF"/><stop offset=".193" stop-color="#BBF1FF"/><stop offset=".703" stop-color="#D7F8FF"/><stop offset="1" stop-color="#E1FAFF"/></radialGradient><linearGradient id="e" x1="16.681" y1="34.428" x2="6.787" y2="14.428" gradientUnits="userSpaceOnUse"><stop stop-color="#155CDE"/><stop offset=".278" stop-color="#1F7FE5"/><stop offset=".569" stop-color="#279CEB"/><stop offset=".82" stop-color="#2CAFEF"/><stop offset="1" stop-color="#2EB5F0"/></linearGradient><linearGradient id="f" x1="31.375" y1="19.35" x2="21.055" y2=".52" gradientUnits="userSpaceOnUse"><stop stop-color="#155CDE"/><stop offset=".278" stop-color="#1F7FE5"/><stop offset=".569" stop-color="#279CEB"/><stop offset=".82" stop-color="#2CAFEF"/><stop offset="1" stop-color="#2EB5F0"/></linearGradient><linearGradient id="g" x1="21.865" y1="21.516" x2="18.62" y2="18.059" gradientUnits="userSpaceOnUse"><stop stop-color="#155CDE"/><stop offset=".278" stop-color="#1F7FE5"/><stop offset=".569" stop-color="#279CEB"/><stop offset=".82" stop-color="#2CAFEF"/><stop offset="1" stop-color="#2EB5F0"/></linearGradient><clipPath id="a"><path fill="#fff" d="M0 0h40v40H0z"/></clipPath></defs></svg>
